X:2891
T:Polonäs i D efter Ruben Thollin 
S:efter Ruben Thollin
B:http://www.smus.se/earkiv/fmk/browselarge.php?lang=sw&katalogid=MMD+68&bildnr=00005
R:Slängpolska
O:Hallsberg, Närke
Z:Nils L
L:1/16
M:3/4
K:D
d2f2 f2a2 a2f2 | a2fa g4 e2f2 | g2eg f4 d2f2 | f2e2 e2c2 A4 | 
d2f2 f2a2 a2f2 | a2fa g4 e2f2 | g2eg f4 d2f2 | f2e2 e4 d4 ::
a2a2 f2af d4 | b2b2 g2bg e4 | e2e2 c2ec A4 | a2a2 f2af d4 | 
d2f2 f2a2 a2f2 | a2fa g4 e2g2 | g2eg f4 d2f2 | f2e2 e4 d4 :| 
(:musicend:)
(:music:)
